X: 32253
T: Pibroch Of Donald Dhu
R: jig
M: 6/8
K: Amajor
|:e>cc f>ga|e>cc c>BA|e>cc f>ga|ec>A B2 A|
e>cc f>ga|e>cc c>BA|B2 c d>ef|ecA B2 A:|
e>cc f>dd e>cc c>BA|e>cc f>dd|ec>A B2 A|
e>cc f>dd e>cc c>BA|B2 c d>ef|ecA B2 A:|
|:e2 A f2 A|e2 A c>BA|e2 A f2 A|ec>A B2 A|
e2 A f2 A|e2 a c>BA|B2 c d>ef|ecA B2 A:|
|:a>ee a>ff|a>ee c>BA|a>ee a>ff|ec>A B2 A|
a>ee a>ff|a>ee c>BA|B2 c d>ef|ecA B2 A:|

